X:1
T: Loch Erricht Side
C:
R:Reel
Q: 232
K:C
M:4/4
L:1/8
CD|E2 G2 G2 AB|c3d c2 B2|A3G A2 c2|d3e d2 D2|E2 G2 G2 AB|c3d e3d|cB AG c2 e2|d4 c2 gf|
e2 g2 c2 ef|gf ef g2 fe|f2 a2 d2 fg|ag fg a2 gf|e2 g2 d2 e2|c3d e3d|cB AG c2 e2|d4 c2 CD|
E2 G2 G2 AB|c3d c2 B2|A3G A2 c2|d3e d2 D2|E2 G2 G2 AB|c3d e3d|cB AG c2 e2|d4 c2 gf|
e2 g2 c2 ef|gf ef g2 fe|f2 a2 d2 fg|ag fg a2 gf|e2 g2 d2 e2|c3d e3d|cB AG c2 e2|d4 c2 gf|
e2 g2 c2 ef|gf ef g2 fe|f2 a2 d2 fg|ag fg a2 gf|e2 g2 d2 e2|c3d e3d|cB AG c2 e2|d4 c2||
